client/public/img/game/weapons/aug.svg

<?xml version="1.0" encoding="UTF-8" standalone="no"?>
<svg
   width="110"
   height="110"
   viewBox="0 0 110 110"
   fill="none"
   version="1.1"
   id="svg55"
   sodipodi:docname="aug.svg"
   inkscape:version="1.1.2 (0a00cf5339, 2022-02-04)"
   xmlns:inkscape="http://www.inkscape.org/namespaces/inkscape"
   xmlns:sodipodi="http://sodipodi.sourceforge.net/DTD/sodipodi-0.dtd"
   xmlns="http://www.w3.org/2000/svg"
   xmlns:svg="http://www.w3.org/2000/svg">
  <sodipodi:namedview
     id="namedview57"
     pagecolor="#505050"
     bordercolor="#ffffff"
     borderopacity="1"
     inkscape:pageshadow="0"
     inkscape:pageopacity="0"
     inkscape:pagecheckerboard="1"
     showgrid="false"
     inkscape:zoom="7.9181818"
     inkscape:cx="54.936854"
     inkscape:cy="54.936854"
     inkscape:window-width="2560"
     inkscape:window-height="1372"
     inkscape:window-x="0"
     inkscape:window-y="0"
     inkscape:window-maximized="1"
     inkscape:current-layer="svg55" />
  <g
     clip-path="url(#clip0_619_1196)"
     id="g48"
     transform="matrix(1.0174102,0,0,1.0174102,-0.71053804,2.2712015)">
    <path
       d="m 85.3851,31.7552 -1.0921,0.6305 1.0892,1.8866 1.092,-0.6306 z"
       fill="#55554d"
       stroke="#363630"
       stroke-width="1.4031"
       stroke-miterlimit="3.99393"
       stroke-linecap="round"
       id="path2" />
    <path
       d="m 83.0729,33.0929 2.3072,-1.3321 c 0,0 1.0148,-0.596 0.0794,-2.1601 -0.9355,-1.5641 -4.607,1.4913 -4.607,1.4913 z"
       fill="#55554d"
       stroke="#363630"
       stroke-width="1.4031"
       stroke-miterlimit="3.99393"
       stroke-linecap="round"
       id="path4" />
    <path
       d="m 74.7697,26.5003 -0.6694,-0.8367 c -0.2192,-0.2745 -0.1682,-0.6806 0.1136,-0.9081 l 0.7663,-0.6126 c 0.1327,-0.1069 0.2929,-0.1731 0.4608,-0.1911 l 4.1889,-0.4722 c 0.4262,-0.0476 0.8045,0.2464 0.8579,0.6651 l 0.1806,1.4248 z"
       fill="#464640"
       stroke="#353530"
       stroke-width="1.4031"
       stroke-miterlimit="3.99393"
       stroke-linecap="round"
       id="path6" />
    <path
       d="m 83.0713,33.0913 c 0,0 -2.0771,1.4036 -3.48,2.3179 0.3601,-0.2572 0.5812,-0.3829 0.5812,-0.3829 L 79.4437,33.7641 62.3418,43.64 c -1.1635,0.6717 -2.6513,0.2731 -3.323,-0.8904 l -2.4686,-4.2757 -16.3504,9.4399 c -1.2651,-0.0623 -3.4525,-0.0442 -4.7135,0.6839 l 38.8596,-22.4356 6.2374,-0.9299 c 0,0 1.3967,1.8648 -0.1508,2.0433 -0.2014,0.0231 -0.3104,0.2481 -0.1959,0.4149 0.6402,0.9265 2.1675,3.2526 2.7578,5.1274 0.0291,0.0925 0.0558,0.1844 0.0769,0.2735 z"
       fill="#55554d"
       stroke="#363630"
       stroke-width="1.4031"
       stroke-miterlimit="3.99393"
       stroke-linecap="round"
       id="path8" />
    <path
       d="m 63.7492,45.2725 1.1395,-0.6579 c 0.0294,0.9458 0.3407,2.1238 1.414,3.1935 0.0407,0.0403 0.0648,0.0903 0.0728,0.1418 0.0058,0.0371 0.0033,0.0749 -0.0071,0.1106 -0.0174,0.0593 -0.0566,0.1129 -0.1164,0.1474 l -2.5147,1.4519 c -0.0569,-0.0907 -0.1014,-0.1687 -0.1333,-0.2274 -0.0406,-0.0745 -0.0608,-0.1181 -0.0608,-0.1181 -1.3014,-2.2541 0.0066,-3.8294 0.17,-4.0129 0.0111,-0.0126 0.0223,-0.021 0.036,-0.0289 z"
       fill="#4b4b44"
       stroke="#363630"
       stroke-width="1.4031"
       stroke-miterlimit="3.99393"
       id="path10" />
    <path
       d="m 88.0544,21.4047 -8.7458,5.0494 1.988,3.4433 8.7458,-5.0494 z"
       fill="#4b4b44"
       stroke="#363630"
       stroke-width="1.4031"
       stroke-miterlimit="3.99393"
       stroke-linecap="round"
       id="path12" />
    <path
       d="m 29.1016,73.89 2.9016,0.4937 2.5808,-5.7024 z"
       fill="#55554d"
       stroke="#363630"
       stroke-width="1.4031"
       stroke-miterlimit="3.99393"
       stroke-linecap="round"
       id="path14" />
    <path
       d="m 35.4818,71.4743 c 0,0 8.6431,10.5279 10.4526,11.7818 0,0 0.978,0.9259 1.282,1.7225 0.304,0.7966 1.6163,0.0389 1.6163,0.0389 l 6.5483,-6.6949 c 0,0 1.4929,-0.5116 -0.8959,-2.3585 -2.3888,-1.847 -8.8938,-9.6167 -9.8373,-11.7209 l -3.1003,-0.859 -6.4991,5.7734 z"
       fill="#484841"
       stroke="#363630"
       stroke-width="1.4031"
       stroke-miterlimit="3.99393"
       stroke-linecap="round"
       id="path16" />
    <path
       d="m 83.2613,35.5004 4.7268,-2.7291 c 0,0 2.6403,5.3694 4.2729,6.9098 1.6326,1.5403 2.5782,4.4655 2.5782,4.4655 0,0 1.2619,2.0419 2.0135,2.2702 0.7515,0.2284 -1.6921,2.2994 -1.6921,2.2994 0,0 -3.2173,2.5198 -4.3635,0.5346 -1.1461,-1.9852 -3.2292,-5.9509 -4.0631,-8.6125 -0.834,-2.6616 -3.2067,-3.9792 -3.2067,-3.9792 0,0 -1.3292,-0.5449 -0.266,-1.1587 z"
       fill="#6e6e4a"
       stroke="#3d3d28"
       stroke-width="1.4031"
       stroke-miterlimit="3.99393"
       stroke-linecap="round"
       id="path18" />
    <path
       d="m 62.3438,43.6398 c -1.1635,0.6718 -2.6513,0.2731 -3.323,-0.8904 L 56.5522,38.4737 3.86914,68.8903 C -0.962482,71.6799 3.4354,75.7895 3.4354,75.7895 l 16.7421,16.5136 7.3589,-4.2487 c 2.1538,-1.2434 0.1804,-2.5708 0.1804,-2.5708 -2.5452,-0.6306 -0.8045,-3.5191 -0.8045,-3.5191 0,0 4.3574,-8.8586 5.8428,-10.8564 1.4878,-1.9972 2.4936,0.1876 2.6655,0.3303 0.1719,0.1427 8.5701,-7.4228 8.7922,-7.6279 0.2221,-0.2052 1.1431,-1.5349 0.4924,-2.8198 -0.6484,-1.2844 0.5384,-2.3402 0.5384,-2.3402 0,0 1.8131,-1.9318 5.1431,-4.9054 2.4134,-2.1549 4.2899,-1.6687 4.2899,-1.6687 0,0 1.5879,0.8876 1.2025,4.952 -0.5282,5.5745 3.2148,11.2368 3.6171,11.6951 0.4023,0.4583 1.6533,-0.1708 6.8099,-3.0568 5.1575,-2.8845 5.5125,-6.1597 5.5125,-6.1597 0,0 1.2497,-7.352 2.0431,-14.3474 0.7933,-6.9954 6.3128,-10.1334 6.3128,-10.1334 L 79.4458,33.764 Z m 9.5058,1.9038 -2.1513,13.4479 c -0.019,0.1654 0.0227,1.7265 -2.6429,3.2656 -2.7994,1.6162 -2.9486,-0.6206 -2.9486,-0.6206 0,0 -0.732,-7.2731 -0.9027,-8.8878 -0.1495,-1.4165 0.4822,-1.7325 0.6398,-1.7891 0.03,-0.0113 0.0576,-0.0231 0.0849,-0.0389 l 0.4117,-0.2377 c 0.082,-0.0473 0.0986,-0.1623 0.0303,-0.2281 -0.55,-0.5492 -0.8253,-1.1417 -0.8253,-1.1417 -1.3013,-2.254 0.05,-3.9516 0.2453,-4.0644 l 4.4598,-2.5749 c 0.3995,-0.2306 0.8676,-0.3247 1.3227,-0.2451 2.9326,0.5123 2.3107,2.9815 2.2763,3.1148 z"
       fill="#6e6e4a"
       id="path20" />
    <path
       d="m 71.8487,45.5421 9e-4,0.0015 m 0,0 -2.1513,13.4479 c -0.019,0.1654 0.0227,1.7265 -2.6429,3.2656 -2.7994,1.6162 -2.9486,-0.6206 -2.9486,-0.6206 0,0 -0.732,-7.2731 -0.9027,-8.8878 -0.1495,-1.4165 0.4822,-1.7325 0.6398,-1.7891 0.03,-0.0113 0.0576,-0.0231 0.0849,-0.0389 l 0.4117,-0.2377 c 0.082,-0.0473 0.0986,-0.1623 0.0303,-0.2281 -0.55,-0.5492 -0.8253,-1.1417 -0.8253,-1.1417 -1.3013,-2.254 0.05,-3.9516 0.2453,-4.0644 l 4.4598,-2.5749 c 0.3995,-0.2306 0.8676,-0.3247 1.3227,-0.2451 2.9326,0.5123 2.3107,2.9815 2.2763,3.1148 z m -9.5058,-1.9038 c -1.1635,0.6718 -2.6513,0.2731 -3.323,-0.8904 L 56.5522,38.4737 3.86914,68.8903 C -0.962482,71.6799 3.4354,75.7895 3.4354,75.7895 l 16.7421,16.5136 7.3589,-4.2487 c 2.1538,-1.2435 0.1804,-2.5708 0.1804,-2.5708 -2.5452,-0.6306 -0.8045,-3.5191 -0.8045,-3.5191 0,0 4.3574,-8.8586 5.8428,-10.8564 1.4878,-1.9972 2.4936,0.1876 2.6655,0.3303 0.1719,0.1427 8.5701,-7.4228 8.7922,-7.6279 0.2221,-0.2052 1.1431,-1.5349 0.4924,-2.8198 -0.6484,-1.2844 0.5384,-2.3402 0.5384,-2.3402 0,0 1.8131,-1.9318 5.1431,-4.9054 2.4134,-2.1549 4.2899,-1.6687 4.2899,-1.6687 0,0 1.5879,0.8876 1.2025,4.952 -0.5282,5.5745 3.2148,11.2368 3.6171,11.6951 0.4023,0.4583 1.6533,-0.1708 6.8099,-3.0568 5.1575,-2.8845 5.5125,-6.1597 5.5125,-6.1597 0,0 1.2497,-7.352 2.0431,-14.3474 0.7933,-6.9954 6.3128,-10.1334 6.3128,-10.1334 L 79.4458,33.764 Z"
       stroke="#3d3d28"
       stroke-width="1.4031"
       stroke-miterlimit="3.99393"
       stroke-linecap="round"
       id="path22" />
    <path
       d="M 2.09277,74.0586 2.44355,74.6662 26.9237,60.5325 26.5729,59.925 Z"
       fill="#4f4f35"
       id="path24" />
    <path
       d="M 4.53809,77.2803 4.88886,77.8878 42.4984,56.174 42.1476,55.5664 Z"
       fill="#4f4f35"
       id="path26" />
    <path
       d="m 36.5786,52.1387 -10.7811,6.2245 c -0.2215,0.1279 -0.2974,0.4111 -0.1695,0.6325 l 0.8138,1.4096 c 0.1279,0.2214 0.411,0.2973 0.6325,0.1694 l 10.7811,-6.2245 c 0.2215,-0.1278 0.2974,-0.411 0.1695,-0.6325 l -0.8138,-1.4095 c -0.1278,-0.2215 -0.411,-0.2973 -0.6325,-0.1695 z"
       fill="#464640"
       stroke="#353530"
       stroke-width="0.701549"
       stroke-miterlimit="3.99393"
       stroke-linecap="round"
       id="path28" />
    <path
       d="m 71.0548,32.8221 -9.0572,5.2292 c -0.7198,0.4155 -0.9664,1.3359 -0.5509,2.0556 0.4156,0.7198 1.3368,0.9679 2.0565,0.5523 l 9.0573,-5.2291 c 0.7197,-0.4156 0.9654,-1.3374 0.5499,-2.0572 -0.4156,-0.7197 -1.3359,-0.9663 -2.0556,-0.5508 z"
       fill="#464640"
       stroke="#353530"
       stroke-width="0.701549"
       stroke-miterlimit="3.99393"
       stroke-linecap="round"
       id="path30" />
    <path
       d="m 88.8591,24.2817 -7.8679,4.5425 1.2979,2.248 7.8679,-4.5426 z"
       fill="#4e4e46"
       stroke="#363630"
       stroke-width="1.4031"
       stroke-miterlimit="3.99393"
       stroke-linecap="round"
       id="path32" />
    <path
       d="m 41.5703,55.2656 2.7052,-1.5618 0.7822,1.3549 c 0.2403,0.4161 0.0978,0.948 -0.3184,1.1883 l -1.2334,0.7121 c -0.3964,0.2288 -0.9043,0.0927 -1.1332,-0.3037 z"
       fill="#464640"
       stroke="#353530"
       stroke-width="0.701549"
       stroke-miterlimit="3.99393"
       stroke-linecap="round"
       id="path34" />
    <path
       d="m 103.203,13.4449 -14.8075,8.5492 1.3417,2.324 14.8078,-8.5493 z"
       fill="#46463f"
       stroke="#363630"
       stroke-width="1.4031"
       stroke-miterlimit="3.99393"
       stroke-linecap="round"
       id="path36" />
    <path
       d="m 100.082,14.6111 -0.9934,0.5735 c -0.1401,0.0809 -0.1881,0.26 -0.1072,0.4001 l 1.5096,2.6156 c 0.081,0.14 0.261,0.188 0.401,0.1072 l 0.993,-0.5736 c 0.14,-0.0808 0.188,-0.26 0.107,-0.4001 l -1.51,-2.6155 c -0.081,-0.1401 -0.26,-0.1881 -0.4,-0.1072 z"
       fill="#46463f"
       stroke="#363630"
       stroke-width="1.4031"
       stroke-miterlimit="3.99393"
       stroke-linecap="round"
       id="path38" />
    <path
       d="m 106.036,11.1734 -3.814,2.202 c -0.266,0.154 -0.358,0.4951 -0.204,0.7619 l 1.245,2.1568 c 0.154,0.2668 0.495,0.3582 0.762,0.2042 l 3.814,-2.202 c 0.267,-0.154 0.358,-0.4951 0.204,-0.7619 l -1.245,-2.1568 c -0.154,-0.2668 -0.495,-0.3582 -0.762,-0.2042 z"
       fill="#46463f"
       stroke="#363630"
       stroke-width="1.4031"
       stroke-miterlimit="3.99393"
       stroke-linecap="round"
       id="path40" />
    <path
       d="m 91.628,25.6793 -1.4688,0.848 -1.2979,-2.248 1.2729,-0.7349 c 0,0 0.6557,-0.0849 1.1775,0.8188 0.5218,0.9038 0.3163,1.3161 0.3163,1.3161 z"
       fill="#97978c"
       stroke="#363630"
       stroke-width="1.4031"
       stroke-miterlimit="3.99393"
       stroke-linecap="round"
       id="path42" />
    <path
       d="M 1.6586,71.1543 C 1.58125,71.0308 1.50095,70.9759 1.48528,71.1207 c -0.10452,0.9555 -0.570549,3.5332 1.98942,6.0064 3.13807,3.0325 13.9541,13.1373 15.3416,15.0986 0.1193,0.1295 0.7836,0.7363 2.2949,-0.1362 l 0.2248,-0.1298 c 0.0896,-0.0517 0.1049,-0.176 0.0276,-0.2468 C 19.6027,90.0765 3.71491,74.4002 1.6586,71.1543 Z"
       fill="#464640"
       stroke="#353530"
       stroke-width="1.4031"
       stroke-miterlimit="3.99393"
       stroke-linecap="round"
       id="path44" />
    <path
       d="M 71.4964,26.6513 34.6768,47.9092 35.1766,48.775 71.9963,27.5171 Z"
       fill="#464640"
       stroke="#353530"
       stroke-width="0.701549"
       stroke-miterlimit="3.99393"
       stroke-linecap="round"
       id="path46" />
  </g>
  <defs
     id="defs53">
    <clipPath
       id="clip0_619_1196">
      <rect
         width="110"
         height="110"
         fill="white"
         id="rect50" />
    </clipPath>
  </defs>
</svg>

<svg width="110" height="110" viewBox="0 0 110 110" fill="none" xmlns="http://www.w3.org/2000/svg">
<g clip-path="url(#clip0_619_1196)">
<path d="M85.3851 31.7552L84.293 32.3857L85.3822 34.2723L86.4742 33.6417L85.3851 31.7552Z" fill="#55554D" stroke="#363630" stroke-width="1.4031" stroke-miterlimit="3.99393" stroke-linecap="round"/>
<path d="M83.0729 33.0929L85.3801 31.7608C85.3801 31.7608 86.3949 31.1648 85.4595 29.6007C84.524 28.0366 80.8525 31.092 80.8525 31.092L83.0729 33.0929Z" fill="#55554D" stroke="#363630" stroke-width="1.4031" stroke-miterlimit="3.99393" stroke-linecap="round"/>
<path d="M74.7697 26.5003L74.1003 25.6636C73.8811 25.3891 73.9321 24.983 74.2139 24.7555L74.9802 24.1429C75.1129 24.036 75.2731 23.9698 75.441 23.9518L79.6299 23.4796C80.0561 23.432 80.4344 23.726 80.4878 24.1447L80.6684 25.5695L74.7697 26.5003Z" fill="#464640" stroke="#353530" stroke-width="1.4031" stroke-miterlimit="3.99393" stroke-linecap="round"/>
<path d="M83.0713 33.0913C83.0713 33.0913 80.9942 34.4949 79.5913 35.4092C79.9514 35.152 80.1725 35.0263 80.1725 35.0263L79.4437 33.7641L62.3418 43.64C61.1783 44.3117 59.6905 43.9131 59.0188 42.7496L56.5502 38.4739L40.1998 47.9138C38.9347 47.8515 36.7473 47.8696 35.4863 48.5977L74.3459 26.1621L80.5833 25.2322C80.5833 25.2322 81.98 27.097 80.4325 27.2755C80.2311 27.2986 80.1221 27.5236 80.2366 27.6904C80.8768 28.6169 82.4041 30.943 82.9944 32.8178C83.0235 32.9103 83.0502 33.0022 83.0713 33.0913Z" fill="#55554D" stroke="#363630" stroke-width="1.4031" stroke-miterlimit="3.99393" stroke-linecap="round"/>
<path d="M63.7492 45.2725L64.8887 44.6146C64.9181 45.5604 65.2294 46.7384 66.3027 47.8081C66.3434 47.8484 66.3675 47.8984 66.3755 47.9499C66.3813 47.987 66.3788 48.0248 66.3684 48.0605C66.351 48.1198 66.3118 48.1734 66.252 48.2079L63.7373 49.6598C63.6804 49.5691 63.6359 49.4911 63.604 49.4324C63.5634 49.3579 63.5432 49.3143 63.5432 49.3143C62.2418 47.0602 63.5498 45.4849 63.7132 45.3014C63.7243 45.2888 63.7355 45.2804 63.7492 45.2725Z" fill="#4B4B44" stroke="#363630" stroke-width="1.4031" stroke-miterlimit="3.99393"/>
<path d="M88.0544 21.4047L79.3086 26.4541L81.2966 29.8974L90.0424 24.848L88.0544 21.4047Z" fill="#4B4B44" stroke="#363630" stroke-width="1.4031" stroke-miterlimit="3.99393" stroke-linecap="round"/>
<path d="M29.1016 73.89L32.0032 74.3837L34.584 68.6813L29.1016 73.89Z" fill="#55554D" stroke="#363630" stroke-width="1.4031" stroke-miterlimit="3.99393" stroke-linecap="round"/>
<path d="M35.4818 71.4743C35.4818 71.4743 44.1249 82.0022 45.9344 83.2561C45.9344 83.2561 46.9124 84.182 47.2164 84.9786C47.5204 85.7752 48.8327 85.0175 48.8327 85.0175L55.381 78.3226C55.381 78.3226 56.8739 77.811 54.4851 75.9641C52.0963 74.1171 45.5913 66.3474 44.6478 64.2432L41.5475 63.3842L35.0484 69.1576L35.4818 71.4743Z" fill="#484841" stroke="#363630" stroke-width="1.4031" stroke-miterlimit="3.99393" stroke-linecap="round"/>
<path d="M83.2613 35.5004L87.9881 32.7713C87.9881 32.7713 90.6284 38.1407 92.261 39.6811C93.8936 41.2214 94.8392 44.1466 94.8392 44.1466C94.8392 44.1466 96.1011 46.1885 96.8527 46.4168C97.6042 46.6452 95.1606 48.7162 95.1606 48.7162C95.1606 48.7162 91.9433 51.236 90.7971 49.2508C89.651 47.2656 87.5679 43.2999 86.734 40.6383C85.9 37.9767 83.5273 36.6591 83.5273 36.6591C83.5273 36.6591 82.1981 36.1142 83.2613 35.5004Z" fill="#6E6E4A" stroke="#3D3D28" stroke-width="1.4031" stroke-miterlimit="3.99393" stroke-linecap="round"/>
<path d="M62.3438 43.6398C61.1803 44.3116 59.6925 43.9129 59.0208 42.7494L56.5522 38.4737L3.86914 68.8903C-0.962482 71.6799 3.4354 75.7895 3.4354 75.7895L20.1775 92.3031L27.5364 88.0544C29.6902 86.811 27.7168 85.4836 27.7168 85.4836C25.1716 84.853 26.9123 81.9645 26.9123 81.9645C26.9123 81.9645 31.2697 73.1059 32.7551 71.1081C34.2429 69.1109 35.2487 71.2957 35.4206 71.4384C35.5925 71.5811 43.9907 64.0156 44.2128 63.8105C44.4349 63.6053 45.3559 62.2756 44.7052 60.9907C44.0568 59.7063 45.2436 58.6505 45.2436 58.6505C45.2436 58.6505 47.0567 56.7187 50.3867 53.7451C52.8001 51.5902 54.6766 52.0764 54.6766 52.0764C54.6766 52.0764 56.2645 52.964 55.8791 57.0284C55.3509 62.6029 59.0939 68.2652 59.4962 68.7235C59.8985 69.1818 61.1495 68.5527 66.3061 65.6667C71.4636 62.7822 71.8186 59.507 71.8186 59.507C71.8186 59.507 73.0683 52.155 73.8617 45.1596C74.655 38.1642 80.1745 35.0262 80.1745 35.0262L79.4458 33.764L62.3438 43.6398ZM71.8496 45.5436L69.6983 58.9915C69.6793 59.1569 69.721 60.718 67.0554 62.2571C64.256 63.8733 64.1068 61.6365 64.1068 61.6365C64.1068 61.6365 63.3748 54.3634 63.2041 52.7487C63.0546 51.3322 63.6863 51.0162 63.8439 50.9596C63.8739 50.9483 63.9015 50.9365 63.9288 50.9207L64.3405 50.683C64.4225 50.6357 64.4391 50.5207 64.3708 50.4549C63.8208 49.9057 63.5455 49.3132 63.5455 49.3132C62.2442 47.0592 63.5955 45.3616 63.7908 45.2488L68.2506 42.6739C68.6501 42.4433 69.1182 42.3492 69.5733 42.4288C72.5059 42.9411 71.884 45.4103 71.8496 45.5436Z" fill="#6E6E4A"/>
<path d="M71.8487 45.5421L71.8496 45.5436M71.8496 45.5436L69.6983 58.9915C69.6793 59.1569 69.721 60.718 67.0554 62.2571C64.256 63.8733 64.1068 61.6365 64.1068 61.6365C64.1068 61.6365 63.3748 54.3634 63.2041 52.7487C63.0546 51.3322 63.6863 51.0162 63.8439 50.9596C63.8739 50.9483 63.9015 50.9365 63.9288 50.9207L64.3405 50.683C64.4225 50.6357 64.4391 50.5207 64.3708 50.4549C63.8208 49.9057 63.5455 49.3132 63.5455 49.3132C62.2442 47.0592 63.5955 45.3616 63.7908 45.2488L68.2506 42.6739C68.6501 42.4433 69.1182 42.3492 69.5733 42.4288C72.5059 42.9411 71.884 45.4103 71.8496 45.5436ZM62.3438 43.6398C61.1803 44.3116 59.6925 43.9129 59.0208 42.7494L56.5522 38.4737L3.86914 68.8903C-0.962482 71.6799 3.4354 75.7895 3.4354 75.7895L20.1775 92.3031L27.5364 88.0544C29.6902 86.8109 27.7168 85.4836 27.7168 85.4836C25.1716 84.853 26.9123 81.9645 26.9123 81.9645C26.9123 81.9645 31.2697 73.1059 32.7551 71.1081C34.2429 69.1109 35.2487 71.2957 35.4206 71.4384C35.5925 71.5811 43.9907 64.0156 44.2128 63.8105C44.4349 63.6053 45.3559 62.2756 44.7052 60.9907C44.0568 59.7063 45.2436 58.6505 45.2436 58.6505C45.2436 58.6505 47.0567 56.7187 50.3867 53.7451C52.8001 51.5902 54.6766 52.0764 54.6766 52.0764C54.6766 52.0764 56.2645 52.964 55.8791 57.0284C55.3509 62.6029 59.0939 68.2652 59.4962 68.7235C59.8985 69.1818 61.1495 68.5527 66.3061 65.6667C71.4636 62.7822 71.8186 59.507 71.8186 59.507C71.8186 59.507 73.0683 52.155 73.8617 45.1596C74.655 38.1642 80.1745 35.0262 80.1745 35.0262L79.4458 33.764L62.3438 43.6398Z" stroke="#3D3D28" stroke-width="1.4031" stroke-miterlimit="3.99393" stroke-linecap="round"/>
<path d="M2.09277 74.0586L2.44355 74.6662L26.9237 60.5325L26.5729 59.925L2.09277 74.0586Z" fill="#4F4F35"/>
<path d="M4.53809 77.2803L4.88886 77.8878L42.4984 56.174L42.1476 55.5664L4.53809 77.2803Z" fill="#4F4F35"/>
<path d="M36.5786 52.1387L25.7975 58.3632C25.576 58.4911 25.5001 58.7743 25.628 58.9957L26.4418 60.4053C26.5697 60.6267 26.8528 60.7026 27.0743 60.5747L37.8554 54.3502C38.0769 54.2224 38.1528 53.9392 38.0249 53.7177L37.2111 52.3082C37.0833 52.0867 36.8001 52.0109 36.5786 52.1387Z" fill="#464640" stroke="#353530" stroke-width="0.701549" stroke-miterlimit="3.99393" stroke-linecap="round"/>
<path d="M71.0548 32.8221L61.9976 38.0513C61.2778 38.4668 61.0312 39.3872 61.4467 40.1069C61.8623 40.8267 62.7835 41.0748 63.5032 40.6592L72.5605 35.4301C73.2802 35.0145 73.5259 34.0927 73.1104 33.3729C72.6948 32.6532 71.7745 32.4066 71.0548 32.8221Z" fill="#464640" stroke="#353530" stroke-width="0.701549" stroke-miterlimit="3.99393" stroke-linecap="round"/>
<path d="M88.8591 24.2817L80.9912 28.8242L82.2891 31.0722L90.157 26.5296L88.8591 24.2817Z" fill="#4E4E46" stroke="#363630" stroke-width="1.4031" stroke-miterlimit="3.99393" stroke-linecap="round"/>
<path d="M41.5703 55.2656L44.2755 53.7038L45.0577 55.0587C45.298 55.4748 45.1555 56.0067 44.7393 56.247L43.5059 56.9591C43.1095 57.1879 42.6016 57.0518 42.3727 56.6554L41.5703 55.2656Z" fill="#464640" stroke="#353530" stroke-width="0.701549" stroke-miterlimit="3.99393" stroke-linecap="round"/>
<path d="M103.203 13.4449L88.3955 21.9941L89.7372 24.3181L104.545 15.7688L103.203 13.4449Z" fill="#46463F" stroke="#363630" stroke-width="1.4031" stroke-miterlimit="3.99393" stroke-linecap="round"/>
<path d="M100.082 14.6111L99.0886 15.1846C98.9485 15.2655 98.9005 15.4446 98.9814 15.5847L100.491 18.2003C100.572 18.3403 100.752 18.3883 100.892 18.3075L101.885 17.7339C102.025 17.6531 102.073 17.4739 101.992 17.3338L100.482 14.7183C100.401 14.5782 100.222 14.5302 100.082 14.6111Z" fill="#46463F" stroke="#363630" stroke-width="1.4031" stroke-miterlimit="3.99393" stroke-linecap="round"/>
<path d="M106.036 11.1734L102.222 13.3754C101.956 13.5294 101.864 13.8705 102.018 14.1373L103.263 16.2941C103.417 16.5609 103.758 16.6523 104.025 16.4983L107.839 14.2963C108.106 14.1423 108.197 13.8012 108.043 13.5344L106.798 11.3776C106.644 11.1108 106.303 11.0194 106.036 11.1734Z" fill="#46463F" stroke="#363630" stroke-width="1.4031" stroke-miterlimit="3.99393" stroke-linecap="round"/>
<path d="M91.628 25.6793L90.1592 26.5273L88.8613 24.2793L90.1342 23.5444C90.1342 23.5444 90.7899 23.4595 91.3117 24.3632C91.8335 25.267 91.628 25.6793 91.628 25.6793Z" fill="#97978C" stroke="#363630" stroke-width="1.4031" stroke-miterlimit="3.99393" stroke-linecap="round"/>
<path d="M1.6586 71.1543C1.58125 71.0308 1.50095 70.9759 1.48528 71.1207C1.38076 72.0762 0.914731 74.6539 3.4747 77.1271C6.61277 80.1596 17.4288 90.2644 18.8163 92.2257C18.9356 92.3552 19.5999 92.962 21.1112 92.0895L21.336 91.9597C21.4256 91.908 21.4409 91.7837 21.3636 91.7129C19.6027 90.0765 3.71491 74.4002 1.6586 71.1543Z" fill="#464640" stroke="#353530" stroke-width="1.4031" stroke-miterlimit="3.99393" stroke-linecap="round"/>
<path d="M71.4964 26.6513L34.6768 47.9092L35.1766 48.775L71.9963 27.5171L71.4964 26.6513Z" fill="#464640" stroke="#353530" stroke-width="0.701549" stroke-miterlimit="3.99393" stroke-linecap="round"/>
</g>
<defs>
<clipPath id="clip0_619_1196">
<rect width="110" height="110" fill="white"/>
</clipPath>
</defs>
</svg>
